X:1
T:Youthful Glory, 86.86.86
T:Youthful Glory, 86.86.86
T:A Compilation of Genuine Church Music, 1842
T:Public Domain Courtesy of the Cyber Hymnal™
C:A Compilation of Genuine Church Music, 1842
Z:Public Domain
Z:Courtesy of the Cyber Hymnal™
%%score ( 1 2 ) ( 3 4 )
L:1/8
Q:1/4=115
M:4/4
K:A
V:1 treble 
V:2 treble 
V:3 bass 
V:4 bass 
V:1
 [EA]4 [CA]2 [CA]2 | [Ec]2 [Ec]2 [GB]2 [GB]2 | [GB]4 [Ge]4 | [Ac]2 [GB]2 [FA]2 [EG]2 | %4
 !fermata![EA]4 ([Ac]3 [Gd]) | [Ae]2 [Ae]2 [Ae]2 [Gd]2 | [Ac]2 [GB]2 A2 [GB]2 | %7
 [Ac]2 ([GB][Ac]) [Bd]2 [Ac]2 | !fermata![GB]4 [GB]4 | [Ac]2 [Ac]2 [Ae]2 [Ae]2 | [Bd]4 [Ac]4 | %11
 !fermata![GB]4 (c3 d) | ([Ae]3 [Bf]) [Ae]2 [Bd]2 | [Ac]4 [GB]4 | A4 |] %15
V:2
 x8 | x8 | x8 | x8 | x8 | x8 | x4 A2 x2 | x8 | x8 | x8 | x8 | x4 E4 | x8 | x8 | A4 |] %15
V:3
 [A,C]4 [F,C]2 [F,C]2 | A,2 A,2 [D,B,]2 [^D,B,]2 | [E,B,]4 B,4 | [A,C]2 [E,E]2 DC [E,B,]2 | %4
 [A,,C]4 ([A,C]3 B,) | [A,C]2 [A,C]2 [A,C]2 B,2 | [A,C]2 [E,B,]2 [C,C]2 [E,E]2 | %7
 [A,E]2 E2 [B,F]2 [A,E]2 | [E,E]4 [E,E]4 | [A,E]2 [A,E]2 [C,C]2 [C,C]2 | [D,F]4 [A,,E]4 | %11
 [E,E]4 (A,3 B,) | (C3 D) C2 [D,F]2 | [E,E]4 [E,E]4 | [A,,C]4 |] %15
V:4
 x8 | A,2 A,2 x4 | x4 B,4 | x4 D,2 x2 | x7 B, | x6 B,2 | x8 | x2 (G,A,) x4 | x8 | x8 | x8 | %11
 x4 A,4 | A,6 x2 | x8 | x4 |] %15

